X:324
T:Durmete'l mio neu
R:Aada
C:Tradicional
S:Msica Tradicional Asturiana, (C) Tello & Tito. Asturies, 2001.
S:http://pagina.de/MusTradAst <telloytito@asturies.org>
A:Asturies
Z:Asturias, canciones
M:2/4
L:1/8
Q:1/4=90
K:G
|ccc A|B2 B2|ccc A|B4|GA AG|B2 B2|GA GF|G4|A2 A2|B2 B A|G2 A2|G4|
